X: 13511
T: Flowers Of Edinburgh, The
R: reel
M: 4/4
K: Gmajor
|:GE|"G"DB,DE ~G3A|BABd cBAG|"D"FGFE DB,FG|AFBF EAGE|
"G"DB,DE ~G3A|BABd "C"efge|"D7"dcBA GFGA|"G"B2G2 GB:|
|:ef|"G"~g3f gbag|"D"~f3e fagf|"C"edef gfed|"Em"Be{f}ed e2ge|
"G"dBGB ~d3B|"C"edef gfed|"D7"{e}dcBA GFGA|"G"B2GF G2:|

